assets/icons/utility/toggle_panel_bottom.svg

<?xml version="1.0"?><svg xmlns="http://www.w3.org/2000/svg" width="52" height="52" viewBox="0 0 52 52"><path fill="#fff" d="m46 8h-40c-1.1 0-2 0.9-2 2v32c0 1.1 0.9 2 2 2h40c1.1 0 2-0.9 2-2v-32c0-1.1-0.9-2-2-2z m-2 32h-36v-28h36v28z m-3-2h-29.9c-0.6 0-1-0.4-1-1v-10c0-0.6 0.4-1 1-1h29.9c0.6 0 1 0.4 1 1v10c0 0.6-0.4 1-1 1z"></path></svg>

<svg xmlns="http://www.w3.org/2000/svg" x="0px" y="0px"
	 width="52px" height="52px" viewBox="0 0 52 52" enable-background="new 0 0 52 52" xml:space="preserve">
<path fill="#FFFFFF" d="M46,8H6c-1.1,0-2,0.9-2,2v32c0,1.1,0.9,2,2,2h40c1.1,0,2-0.9,2-2V10C48,8.9,47.1,8,46,8z M44,40H8V12h36V40z
	"/>
<path fill="#FFFFFF" d="M41,38H11.1c-0.6,0-1-0.4-1-1V27c0-0.6,0.4-1,1-1H41c0.6,0,1,0.4,1,1v10C42,37.6,41.6,38,41,38z"/>
</svg>
